findly-builder/apps/searchassist/src/assets/icons/search-experience/guide/handthumb.svg

<svg width="35" height="28" viewBox="0 0 35 28" fill="none" xmlns="http://www.w3.org/2000/svg">
<path d="M14.8819 0.238363C16.014 0.795736 16.0164 2.61617 15.9548 3.40319L15.9548 3.54672C15.9548 3.64241 15.9358 3.74527 15.9287 3.85531C15.9027 4.06103 15.8932 4.2859 15.8743 4.4988C15.8482 4.93896 15.8198 5.37433 15.8174 5.81209L15.8174 6.07762C15.8371 6.80294 16.1411 7.49068 16.6627 7.98961C17.1843 8.48854 17.8807 8.7578 18.5988 8.73818C18.6412 8.73818 18.6836 8.73483 18.7257 8.73172C19.1994 8.70126 19.6731 8.67415 20.1468 8.65039C21.6199 8.58979 23.0914 8.57384 24.5613 8.60255C26.0344 8.62647 27.5052 8.69345 28.9759 8.82263C30.4577 8.93823 31.9314 9.14353 33.3889 9.43741C33.8095 9.52699 34.1912 9.74887 34.4793 10.0712C34.7674 10.3935 34.9469 10.7997 34.9922 11.2315C35.0364 11.7442 34.8916 12.2552 34.5856 12.6667C34.2797 13.0781 33.8341 13.361 33.3344 13.461C31.8943 13.7507 30.4383 13.9528 28.9743 14.0662C27.5035 14.1954 26.0328 14.26 24.5597 14.2863L24.3015 14.2863C24.5924 14.5809 24.7951 14.9524 24.8865 15.358C24.991 15.8711 24.9159 16.4049 24.674 16.8682C24.4321 17.3316 24.0384 17.6957 23.5602 17.8985C23.4418 17.9511 23.3234 17.9966 23.2097 18.042C23.4803 18.2297 23.7059 18.4763 23.8698 18.7636C24.0338 19.0508 24.1319 19.3716 24.1571 19.7022C24.1848 20.1853 24.0682 20.6657 23.8224 21.0811C23.5766 21.4966 23.213 21.8279 22.7787 22.0321C22.5525 22.1436 22.319 22.2395 22.08 22.3192C22.3525 22.5083 22.5793 22.7571 22.7433 23.047C22.9074 23.3369 23.0044 23.6606 23.0274 23.9937C23.0523 24.4839 22.9299 24.9704 22.6763 25.3891C22.4228 25.8079 22.0498 26.1395 21.6064 26.3404C21.4021 26.4376 21.1925 26.523 20.9788 26.5964C15.5481 28.7804 9.84755 26.8547 4.78878 23.7066L1.11075 23.7066C0.497352 23.7066 -9.16315e-07 20.9628 -7.68251e-07 17.5755C-6.20188e-07 14.1882 0.497352 10.7651 1.11075 10.7651L4.78878 10.844C6.25478 9.9302 7.42237 9.14796 8.66339 8.54274C9.07533 8.3454 9.4257 8.03758 9.67628 7.65287C9.92687 7.26815 10.068 6.82131 10.0844 6.36109C10.1199 5.71043 10.1957 5.73913 10.3212 5.10043C10.4496 4.45739 10.6302 3.82612 10.8612 3.21301C10.978 2.89934 11.1125 2.59265 11.2638 2.29442C11.3372 2.14611 11.4178 1.99301 11.5007 1.83752L11.638 1.59831L11.8156 1.31125C12.0761 0.760053 12.5427 0.335911 13.1127 0.132075C13.6827 -0.0717617 14.3096 -0.0386072 14.8554 0.224249L14.8819 0.238363Z" fill="#FFDA2D"/>
<path d="M31.4324 11.3693C31.4182 9.91966 33.8008 10.1134 33.8008 11.4411C33.8055 12.9051 31.449 13.1204 31.4324 11.3693Z" fill="#FF784B"/>
<path d="M12.5967 2.00238C12.5825 0.552728 14.9651 0.746493 14.9651 2.07175C14.9698 3.53934 12.6133 3.75463 12.5967 2.00238Z" fill="#FF784B"/>
<path d="M0.844695 17.1764C0.856778 19.9732 1.30979 22.2386 1.85653 22.2362C2.40327 22.2338 2.83669 19.9645 2.82461 17.1677C2.81253 14.3708 2.35951 12.1055 1.81277 12.1079C1.26604 12.1103 0.832613 14.3795 0.844695 17.1764Z" fill="#FF784B"/>
<path d="M1.69369 16.5132C1.69368 17.1288 1.87501 17.6279 2.09868 17.6279C2.32234 17.6279 2.50366 17.1288 2.50366 16.5132C2.50366 15.8975 2.32234 15.3984 2.09868 15.3984C1.87501 15.3984 1.69369 15.8975 1.69369 16.5132Z" fill="white"/>
<path d="M26.5692 12.7416C26.5526 12.5263 26.555 12.3062 26.5573 12.0957L26.5573 10.1772C26.5598 10.1281 26.5813 10.082 26.6172 10.0488C26.6532 10.0157 26.7006 9.99819 26.7492 10.0001C26.7784 10.0016 26.8069 10.0099 26.8324 10.0245C26.8579 10.039 26.8797 10.0593 26.896 10.0839C27.0276 10.2867 27.1215 10.5121 27.1731 10.7489C27.2294 10.9837 27.2549 11.225 27.2489 11.4665C27.2464 11.7029 27.2162 11.9382 27.1589 12.1674C27.1073 12.4012 27.0185 12.625 26.896 12.8301C26.8762 12.8638 26.8461 12.8903 26.8104 12.9056C26.7746 12.9209 26.7349 12.9242 26.6971 12.9151C26.6593 12.9061 26.6253 12.885 26.6002 12.8551C26.5751 12.8252 26.56 12.7879 26.5573 12.7487L26.5692 12.7416Z" fill="#FF784B"/>
<path d="M12.4685 5.19116C12.5754 5.17053 12.6846 5.16489 12.793 5.17441C12.89 5.1807 12.9865 5.19348 13.0819 5.21269C13.1757 5.23074 13.2682 5.25471 13.359 5.28445C13.4588 5.3191 13.5555 5.36232 13.6479 5.41363L13.674 5.42798C13.7202 5.45549 13.7539 5.5003 13.7676 5.55269C13.7814 5.60509 13.7741 5.66084 13.7474 5.70786C13.7337 5.73151 13.7151 5.7519 13.6929 5.76767C13.5843 5.84809 13.4571 5.89914 13.3235 5.91598C13.1989 5.93751 13.0715 5.93751 12.9469 5.91598C12.8248 5.89062 12.7074 5.84623 12.5988 5.78441C12.4847 5.7199 12.3861 5.63089 12.3098 5.52367C12.2794 5.48019 12.2673 5.4263 12.2762 5.37383C12.2851 5.32135 12.3142 5.27458 12.3572 5.24378C12.3786 5.22871 12.4027 5.21814 12.4283 5.21269L12.4685 5.19116Z" fill="#FF784B"/>
<path d="M28.2874 12.056C28.2439 11.9578 28.2144 11.8539 28.1997 11.7474C28.1846 11.6525 28.1775 11.5565 28.1784 11.4603C28.1804 11.3658 28.1883 11.2715 28.2021 11.1781C28.2192 11.0744 28.2486 10.9732 28.2897 10.8766L28.2897 10.8527C28.3111 10.8026 28.3514 10.7632 28.4015 10.7431C28.4517 10.7229 28.5078 10.7237 28.5574 10.7453L28.5621 10.7475C28.5851 10.7568 28.606 10.7706 28.6237 10.7881C28.7118 10.88 28.7775 10.9914 28.8155 11.1135C28.8512 11.228 28.8688 11.3475 28.8676 11.4675C28.8655 11.5855 28.8455 11.7025 28.8084 11.8144C28.7708 11.9336 28.7078 12.043 28.6237 12.1349C28.5878 12.1748 28.5377 12.1986 28.4845 12.2013C28.4312 12.2039 28.3791 12.1851 28.3395 12.149L28.3373 12.1469C28.3205 12.129 28.3062 12.1089 28.2947 12.0871L28.2874 12.056Z" fill="#FF784B"/>
<path d="M22.0864 20.7708C22.0426 20.6736 22.013 20.5705 21.9988 20.4646C21.9834 20.369 21.9763 20.2721 21.9775 20.1752C21.979 20.0814 21.9877 19.9878 22.0035 19.8953C22.0191 19.7916 22.0478 19.6903 22.0888 19.5939L22.0888 19.57C22.1111 19.5195 22.1522 19.4799 22.2031 19.4598C22.2541 19.4396 22.3108 19.4406 22.3611 19.4623C22.3837 19.4734 22.4045 19.4879 22.4227 19.5054C22.5118 19.5966 22.5776 19.7082 22.6145 19.8307C22.6506 19.9451 22.6682 20.0647 22.6667 20.1848C22.6645 20.3018 22.6453 20.4178 22.6098 20.5292C22.5705 20.6489 22.5067 20.7589 22.4227 20.8522C22.385 20.8902 22.3339 20.9116 22.2806 20.9116C22.2273 20.9116 22.1762 20.8902 22.1385 20.8522C22.1203 20.8359 22.105 20.8164 22.0935 20.7948L22.0864 20.7708Z" fill="#FF784B"/>
<path d="M22.9819 16.6868C22.9326 16.555 22.8992 16.4177 22.8824 16.2778C22.8651 16.1462 22.8572 16.0134 22.8587 15.8807C22.8591 15.7487 22.8678 15.6169 22.8848 15.486C22.9032 15.348 22.9366 15.2124 22.9842 15.0817C22.9933 15.0573 23.0071 15.0349 23.0247 15.0159C23.0423 14.9969 23.0635 14.9815 23.087 14.9708C23.1106 14.96 23.1359 14.9541 23.1617 14.9532C23.1875 14.9524 23.2133 14.9567 23.2374 14.9659L23.24 14.9659C23.2777 14.9802 23.3101 15.0062 23.3324 15.0401C23.4155 15.1677 23.4749 15.3096 23.5076 15.4587C23.539 15.6016 23.5541 15.7477 23.5526 15.8941C23.5526 16.0383 23.5359 16.182 23.5029 16.3223C23.4699 16.4698 23.4122 16.6106 23.3324 16.7385C23.3134 16.7694 23.2863 16.7945 23.2541 16.8107C23.2219 16.827 23.1859 16.8339 23.15 16.8307C23.1141 16.8275 23.0798 16.8142 23.051 16.7925C23.0221 16.7707 22.9998 16.7412 22.9866 16.7074L22.9819 16.6868Z" fill="#FF784B"/>
<path d="M20.8085 25.1456C20.7593 25.0146 20.7259 24.878 20.7091 24.7389C20.6918 24.6065 20.6839 24.473 20.6854 24.3394C20.6846 24.2082 20.6933 24.0771 20.7114 23.9471C20.7285 23.8081 20.7619 23.6716 20.8109 23.5405C20.8298 23.4914 20.8673 23.452 20.915 23.4308C20.9626 23.4097 21.0167 23.4085 21.0653 23.4276L21.0667 23.4276C21.1048 23.4412 21.1373 23.4673 21.1591 23.5017C21.2422 23.6293 21.3016 23.7712 21.3343 23.9203C21.3656 24.0625 21.3807 24.2077 21.3793 24.3533C21.3793 24.4983 21.3627 24.6428 21.3296 24.7839C21.2962 24.9313 21.2386 25.072 21.1591 25.2001C21.1309 25.2445 21.0865 25.2758 21.0356 25.2871C20.9846 25.2984 20.9313 25.2888 20.8874 25.2604C20.8548 25.2379 20.8293 25.2063 20.814 25.1695L20.8085 25.1456Z" fill="#FF784B"/>
</svg>

<svg width="35" height="28" fill="none" xmlns="http://www.w3.org/2000/svg"><path d="M14.882.238c1.132.558 1.134 2.378 1.073 3.165v.144c0 .095-.02.198-.026.308-.026.206-.036.43-.055.644-.026.44-.054.875-.057 1.313v.266a2.75 2.75 0 0 0 .846 1.912 2.694 2.694 0 0 0 1.936.748 100.97 100.97 0 0 1 1.548-.088 72.792 72.792 0 0 1 4.414-.047c1.473.023 2.944.09 4.415.22 1.482.115 2.955.32 4.413.614.42.09.802.312 1.09.634.288.322.468.729.513 1.16.044.513-.1 1.024-.406 1.436a2.065 2.065 0 0 1-1.252.794c-1.44.29-2.896.492-4.36.605a62.61 62.61 0 0 1-4.414.22h-.258c.29.295.493.666.585 1.072a2.283 2.283 0 0 1-.213 1.51 2.247 2.247 0 0 1-1.114 1.03c-.118.053-.237.099-.35.144a2.236 2.236 0 0 1 .947 1.66c.028.483-.089.964-.335 1.38a2.4 2.4 0 0 1-1.043.95c-.227.112-.46.207-.699.287a2.235 2.235 0 0 1 .947 1.675c.025.49-.097.976-.35 1.395-.254.419-.627.75-1.07.951a5.99 5.99 0 0 1-.628.256c-5.43 2.184-11.131.259-16.19-2.89H1.11C.497 23.707 0 20.964 0 17.577c0-3.388.497-6.81 1.11-6.81l3.679.078c1.466-.914 2.633-1.696 3.874-2.301a2.497 2.497 0 0 0 1.013-.89c.25-.385.392-.832.408-1.292.036-.65.112-.622.237-1.26a12.04 12.04 0 0 1 .54-1.888 9.04 9.04 0 0 1 .403-.919c.073-.148.154-.301.237-.456l.137-.24.178-.287c.26-.55.727-.975 1.297-1.179a2.26 2.26 0 0 1 1.742.092l.027.014Z" fill="#FFDA2D"/><path d="M31.432 11.37c-.014-1.45 2.369-1.257 2.369.071.005 1.464-2.352 1.68-2.369-.072ZM12.597 2.002c-.014-1.45 2.368-1.256 2.368.07.005 1.467-2.352 1.683-2.368-.07ZM.845 17.176c.012 2.797.465 5.063 1.012 5.06.546-.002.98-2.271.968-5.068-.012-2.797-.465-5.063-1.012-5.06-.547.002-.98 2.271-.968 5.068Z" fill="#FF784B"/><path d="M1.694 16.513c0 .616.181 1.115.405 1.115.223 0 .405-.5.405-1.115 0-.616-.182-1.115-.405-1.115-.224 0-.405.5-.405 1.115Z" fill="#fff"/><path d="M26.57 12.742a7.4 7.4 0 0 1-.013-.646v-1.919a.184.184 0 0 1 .339-.093c.132.203.226.428.277.665.056.235.082.476.076.717a3.022 3.022 0 0 1-.09.701 2.23 2.23 0 0 1-.263.663.183.183 0 0 1-.199.085.182.182 0 0 1-.14-.166l.012-.007ZM12.469 5.191c.106-.02.216-.026.324-.017a2.265 2.265 0 0 1 .566.11c.1.035.197.078.289.13l.026.014a.206.206 0 0 1 .019.34.786.786 0 0 1-.37.148 1.106 1.106 0 0 1-.376 0 1.195 1.195 0 0 1-.348-.132.896.896 0 0 1-.29-.26.203.203 0 0 1 .048-.28.193.193 0 0 1 .071-.031l.04-.022Zm15.818 6.865a1.15 1.15 0 0 1-.087-.309 1.724 1.724 0 0 1 .002-.569c.017-.104.047-.205.088-.301v-.024a.205.205 0 0 1 .267-.108l.005.003a.194.194 0 0 1 .062.04.824.824 0 0 1 .192.325 1.15 1.15 0 0 1-.008.701.856.856 0 0 1-.184.32.201.201 0 0 1-.284.015l-.003-.002a.274.274 0 0 1-.042-.06l-.008-.031Zm-6.201 8.714a1.102 1.102 0 0 1-.087-.305 1.689 1.689 0 0 1 .005-.57c.015-.103.044-.205.085-.301v-.024a.21.21 0 0 1 .272-.108.244.244 0 0 1 .062.043.8.8 0 0 1 .192.326 1.13 1.13 0 0 1-.005.698.904.904 0 0 1-.187.323.2.2 0 0 1-.284 0 .21.21 0 0 1-.046-.057l-.007-.024Zm.896-4.083a1.77 1.77 0 0 1-.1-.41 3.138 3.138 0 0 1 .002-.792c.02-.137.053-.273.1-.403a.2.2 0 0 1 .103-.111.196.196 0 0 1 .15-.005h.003c.038.014.07.04.092.074.084.128.143.27.176.419a1.99 1.99 0 0 1-.005.863c-.033.148-.09.289-.17.416a.195.195 0 0 1-.183.093.193.193 0 0 1-.163-.124l-.005-.02Zm-2.174 8.459a1.756 1.756 0 0 1-.099-.407 2.838 2.838 0 0 1-.024-.4c0-.13.008-.262.026-.392.018-.139.05-.275.1-.406a.195.195 0 0 1 .254-.113h.002c.038.013.07.04.092.074.083.127.143.27.175.418.032.142.047.288.045.433 0 .145-.016.29-.05.43a1.359 1.359 0 0 1-.17.417.197.197 0 0 1-.272.06.207.207 0 0 1-.073-.09l-.006-.024Z" fill="#FF784B"/></svg>
